apps/www/public/images/logos/hugging-face.svg

<svg width="25" height="25" viewBox="0 0 25 25" fill="none" xmlns="http://www.w3.org/2000/svg">
<path d="M15.0455 9.94569C15.1633 9.9873 15.251 10.1142 15.3344 10.235C15.4471 10.3981 15.5519 10.5499 15.7128 10.4644C16.243 10.1825 16.4442 9.52418 16.1623 8.99402C15.8805 8.46388 15.2222 8.26261 14.692 8.5445C14.1618 8.82639 13.9606 9.48469 14.2425 10.0149C14.317 10.1551 14.4825 10.0889 14.6571 10.0191C14.7941 9.96428 14.9366 9.90724 15.0455 9.94569Z" fill="url(#paint0_linear_375_150595)"/>
<path d="M9.63438 10.235C9.71775 10.1142 9.80542 9.9873 9.92326 9.94569C10.0321 9.90724 10.1747 9.96428 10.3117 10.0191C10.4863 10.0889 10.6518 10.1551 10.7263 10.0149C11.0082 9.48469 10.807 8.82639 10.2768 8.5445C9.74663 8.26261 9.08833 8.46388 8.80644 8.99402C8.52455 9.52418 8.72582 10.1825 9.25598 10.4644C9.41687 10.5499 9.5217 10.3981 9.63438 10.235Z" fill="url(#paint1_linear_375_150595)"/>
<path d="M17.7002 10.9695C18.0905 10.9695 18.4069 10.6531 18.4069 10.2628C18.4069 9.87255 18.0905 9.55615 17.7002 9.55615C17.3099 9.55615 16.9935 9.87255 16.9935 10.2628C16.9935 10.6531 17.3099 10.9695 17.7002 10.9695Z" fill="url(#paint2_linear_375_150595)"/>
<path d="M8.2959 10.2628C8.2959 10.6531 7.9795 10.9695 7.58922 10.9695C7.19891 10.9695 6.88254 10.6531 6.88254 10.2628C6.88254 9.87255 7.19891 9.55615 7.58922 9.55615C7.9795 9.55615 8.2959 9.87255 8.2959 10.2628Z" fill="url(#paint3_linear_375_150595)"/>
<path fill-rule="evenodd" clip-rule="evenodd" d="M10.8035 11.8186C11.3219 12.0746 11.9066 12.3633 12.536 12.3633C13.1673 12.3633 13.7581 12.0713 14.2804 11.8127C14.4148 11.7462 14.552 11.6786 14.6768 11.6269C14.7951 11.5779 14.9434 11.525 15.0942 11.5149C15.2623 11.5036 15.4866 11.5454 15.6442 11.7483C15.7752 11.917 15.7976 12.1235 15.7976 12.2799C15.7976 12.8517 15.6013 13.6651 15.1013 14.3461C14.5874 15.046 13.7554 15.5986 12.536 15.5986C11.3166 15.5986 10.4845 15.046 9.97067 14.3461C9.47069 13.6651 9.27438 12.8517 9.27438 12.2799C9.27438 12.128 9.29557 11.9326 9.41282 11.7684C9.55493 11.5695 9.76544 11.5099 9.9397 11.5133C10.0911 11.5161 10.2377 11.5646 10.3511 11.6091C10.4715 11.6565 10.602 11.7193 10.7293 11.782L10.8035 11.8186ZM10.1538 12.4706C10.1923 12.8672 10.3479 13.3902 10.6718 13.8313C10.7982 14.0036 10.9506 14.1641 11.1338 14.3005C11.3693 14.0144 11.6874 13.7989 12.0516 13.6904C12.1386 13.6646 12.2281 13.8142 12.3198 13.9674C12.4082 14.1153 12.4986 14.2664 12.5906 14.2664C12.6887 14.2664 12.7849 14.1174 12.8789 13.9719C12.9771 13.82 13.0728 13.6719 13.1654 13.7015C13.1924 13.7101 13.2191 13.7193 13.2456 13.7292C13.54 13.8382 13.7998 14.0187 14.0039 14.2495C14.1582 14.1248 14.2892 13.9826 14.4002 13.8313C14.7241 13.3902 14.8797 12.8672 14.9181 12.4706C14.8454 12.5039 14.7627 12.5445 14.6663 12.5922L14.6151 12.6176C14.1238 12.8613 13.3746 13.2331 12.536 13.2331C11.6947 13.2331 10.9394 12.8576 10.4469 12.6127L10.4461 12.6123C10.4111 12.5949 10.3774 12.5782 10.3451 12.5623C10.2733 12.5269 10.2101 12.4964 10.1538 12.4706ZM14.9237 12.2193C14.9237 12.2193 14.9238 12.2194 14.9238 12.2196L14.9241 12.2209C14.9238 12.2199 14.9237 12.2193 14.9237 12.2193Z" fill="url(#paint4_linear_375_150595)"/>
<path fill-rule="evenodd" clip-rule="evenodd" d="M14.021 20.3072C13.556 20.3867 13.078 20.4282 12.5904 20.4282C12.1359 20.4282 11.6897 20.3922 11.2547 20.3229C10.7128 20.9374 9.8642 21.2486 8.72707 21.2486C8.03453 21.2486 7.23456 21.132 6.35002 20.9026L6.34963 20.9025C6.32987 20.897 5.72441 20.7283 5.06342 20.4662C3.98796 20.0398 3.43414 19.6426 3.21126 19.1383C3.06427 18.8056 3.07493 18.4484 3.24149 18.1322C3.25693 18.1029 3.27345 18.0742 3.29106 18.0465C3.01404 17.6234 3.0671 17.2127 3.11885 17.0154C3.18495 16.7639 3.32172 16.5547 3.50742 16.4044C3.41935 16.2581 3.36043 16.1 3.33499 15.9237C3.2815 15.5534 3.40435 15.1833 3.68093 14.8821C3.8962 14.6475 4.20062 14.5184 4.53765 14.5184L4.5466 14.5184C4.29833 13.7238 4.16453 12.8787 4.16453 12.0024C4.16453 7.34891 7.9369 3.57654 12.5904 3.57654C17.2438 3.57654 21.0162 7.34891 21.0162 12.0024C21.0162 12.8809 20.8817 13.7281 20.6322 14.5244C20.6728 14.5204 20.7127 14.5184 20.7518 14.5184C21.0889 14.5184 21.3933 14.6475 21.6085 14.8821C21.8851 15.1833 22.008 15.5534 21.9545 15.9237C21.9291 16.1 21.8701 16.2581 21.7821 16.4044C21.9678 16.5547 22.1045 16.7639 22.1706 17.0154C22.2224 17.2127 22.2754 17.6234 21.9984 18.0465C22.016 18.0742 22.0326 18.1029 22.048 18.1322C22.2146 18.4484 22.2252 18.8056 22.0782 19.1383C21.8553 19.6426 21.3015 20.0398 20.2261 20.4662C19.5648 20.7284 18.9592 20.8971 18.9399 20.9025L18.9395 20.9026C18.0549 21.132 17.255 21.2486 16.5624 21.2486C15.4156 21.2486 14.5624 20.9321 14.021 20.3072ZM12.5904 4.4463C16.7634 4.4463 20.1464 7.82926 20.1464 12.0024C20.1464 12.5792 20.0818 13.1409 19.9594 13.6806C19.7467 13.474 19.4652 13.3614 19.1545 13.3614C18.8727 13.3614 18.5829 13.4546 18.2928 13.6386C18.1004 13.7608 17.8877 13.9774 17.6687 14.2496C17.4659 13.9682 17.1819 13.7812 16.857 13.7301C16.7949 13.7204 16.7316 13.7153 16.6692 13.7153C15.9275 13.7153 15.4813 14.3588 15.3126 14.9376C15.2288 15.1331 14.827 16.0237 14.2225 16.6277C13.3056 17.5441 13.0734 18.4893 13.5219 19.5016C13.2166 19.5391 12.9058 19.5584 12.5904 19.5584C12.3105 19.5584 12.0342 19.5432 11.7622 19.5135C12.2179 18.4967 11.9875 17.5477 11.0669 16.6277C10.4625 16.0237 10.0606 15.1331 9.97692 14.9376C9.80819 14.3588 9.362 13.7153 8.62031 13.7153C8.55791 13.7153 8.49463 13.7204 8.43244 13.7301C8.10759 13.7812 7.82361 13.9682 7.62074 14.2496C7.40177 13.9774 7.18912 13.7608 6.99668 13.6386C6.70662 13.4546 6.41677 13.3614 6.13497 13.3614C5.78293 13.3614 5.46829 13.506 5.2489 13.7682L5.24336 13.7749C5.1067 13.2063 5.03431 12.6128 5.03431 12.0024C5.03431 7.82926 8.41727 4.4463 12.5904 4.4463ZM6.13497 14.2311C6.24586 14.2311 6.38133 14.2783 6.53071 14.3731C6.99451 14.6673 7.88949 16.2057 8.21718 16.8041C8.32698 17.0046 8.51463 17.0894 8.68359 17.0894C9.01888 17.0894 9.28068 16.756 8.71424 16.3325C7.86253 15.6951 8.16129 14.6534 8.56791 14.5892C8.58574 14.5864 8.60335 14.5851 8.62031 14.5851C8.98996 14.5851 9.15304 15.2222 9.15304 15.2222C9.15304 15.2222 9.63097 16.4225 10.452 17.2429C11.2731 18.0635 11.3155 18.7221 10.7171 19.5997C10.309 20.1981 9.52769 20.3788 8.72707 20.3788C7.89667 20.3788 7.04539 20.1844 6.56833 20.0607C6.54484 20.0546 3.64353 19.2351 4.01101 18.5375C4.07276 18.4203 4.17452 18.3734 4.3026 18.3734C4.57724 18.3734 4.97125 18.5903 5.34106 18.7939C5.66807 18.9739 5.97616 19.1435 6.16606 19.1435C6.25652 19.1435 6.32023 19.105 6.34632 19.0111C6.42469 18.7299 5.89024 18.5228 5.30595 18.2964C4.60471 18.0247 3.83167 17.7252 3.96013 17.2364C4.00166 17.0778 4.11429 17.0135 4.27259 17.0137C4.67825 17.0137 5.38316 17.4369 5.95668 17.7812C6.34997 18.0173 6.68147 18.2164 6.81229 18.2164C6.83686 18.2164 6.85448 18.2092 6.86404 18.194C7.02517 17.9339 6.93689 17.7523 5.8012 17.065C5.71218 17.0111 5.62525 16.9589 5.54084 16.9082C4.54823 16.3122 3.9039 15.9252 4.32173 15.4703C4.37392 15.4133 4.44785 15.3881 4.53765 15.3881C5.22715 15.3883 6.85622 16.8708 6.85622 16.8708C6.85622 16.8708 7.29588 17.3281 7.56181 17.3281C7.62291 17.3281 7.67488 17.304 7.7101 17.2444C7.80504 17.0843 7.36031 16.6321 6.88141 16.1451C6.4093 15.6651 5.90398 15.1512 5.84968 14.8502C5.77554 14.4392 5.90165 14.2311 6.13497 14.2311ZM18.7588 14.3731C18.9082 14.2783 19.0436 14.2311 19.1545 14.2311C19.3878 14.2311 19.5139 14.4392 19.4398 14.8502C19.3855 15.1512 18.8802 15.6651 18.4081 16.1451C17.9292 16.6321 17.4844 17.0843 17.5794 17.2444C17.6146 17.304 17.6666 17.3281 17.7277 17.3281C17.9936 17.3281 18.4333 16.8708 18.4333 16.8708C18.4333 16.8708 20.0623 15.3883 20.7518 15.3881C20.8416 15.3881 20.9156 15.4133 20.9678 15.4703C21.3856 15.9252 20.7412 16.3121 19.7486 16.9082C19.6643 16.9589 19.5773 17.0112 19.4883 17.065C18.3526 17.7523 18.2643 17.9339 18.4254 18.194C18.435 18.2092 18.4526 18.2164 18.4772 18.2164C18.608 18.2164 18.9395 18.0173 19.3328 17.7812C19.9063 17.4369 20.6112 17.0137 21.0169 17.0137C21.1752 17.0135 21.2878 17.0778 21.3294 17.2364C21.4578 17.7252 20.6848 18.0247 19.9835 18.2964C19.3992 18.5228 18.8648 18.7299 18.9432 19.0111C18.9693 19.105 19.033 19.1435 19.1234 19.1435C19.3133 19.1435 19.6214 18.9739 19.9484 18.7939C20.3182 18.5903 20.7122 18.3734 20.9869 18.3734C21.115 18.3734 21.2167 18.4203 21.2785 18.5375C21.6459 19.2351 18.7446 20.0546 18.7212 20.0607C18.2441 20.1844 17.3928 20.3788 16.5624 20.3788C15.7618 20.3788 14.9805 20.1981 14.5724 19.5997C13.974 18.7221 14.0164 18.0635 14.8375 17.2429C15.6585 16.4225 16.1364 15.2222 16.1364 15.2222C16.1364 15.2222 16.2995 14.5851 16.6692 14.5851C16.6861 14.5851 16.7037 14.5864 16.7216 14.5892C17.1282 14.6534 17.427 15.6951 16.5752 16.3325C16.0088 16.756 16.2706 17.0894 16.6059 17.0894C16.7748 17.0894 16.9625 17.0046 17.0723 16.8041C17.4 16.2057 18.295 14.6673 18.7588 14.3731Z" fill="url(#paint5_linear_375_150595)"/>
<defs>
<linearGradient id="paint0_linear_375_150595" x1="3.07733" y1="21.2486" x2="20.6936" y2="2.1741" gradientUnits="userSpaceOnUse">
<stop stop-color="#EDEDED" stop-opacity="0.5"/>
<stop offset="1" stop-color="white"/>
</linearGradient>
<linearGradient id="paint1_linear_375_150595" x1="3.07733" y1="21.2486" x2="20.6936" y2="2.1741" gradientUnits="userSpaceOnUse">
<stop stop-color="#EDEDED" stop-opacity="0.5"/>
<stop offset="1" stop-color="white"/>
</linearGradient>
<linearGradient id="paint2_linear_375_150595" x1="3.07733" y1="21.2486" x2="20.6936" y2="2.1741" gradientUnits="userSpaceOnUse">
<stop stop-color="#EDEDED" stop-opacity="0.5"/>
<stop offset="1" stop-color="white"/>
</linearGradient>
<linearGradient id="paint3_linear_375_150595" x1="3.07733" y1="21.2486" x2="20.6936" y2="2.1741" gradientUnits="userSpaceOnUse">
<stop stop-color="#EDEDED" stop-opacity="0.5"/>
<stop offset="1" stop-color="white"/>
</linearGradient>
<linearGradient id="paint4_linear_375_150595" x1="3.07733" y1="21.2486" x2="20.6936" y2="2.1741" gradientUnits="userSpaceOnUse">
<stop stop-color="#EDEDED" stop-opacity="0.5"/>
<stop offset="1" stop-color="white"/>
</linearGradient>
<linearGradient id="paint5_linear_375_150595" x1="3.07733" y1="21.2486" x2="20.6936" y2="2.1741" gradientUnits="userSpaceOnUse">
<stop stop-color="#EDEDED" stop-opacity="0.5"/>
<stop offset="1" stop-color="white"/>
</linearGradient>
</defs>
</svg>

<svg xmlns="http://www.w3.org/2000/svg" width="25" height="25" fill="none" viewBox="0 0 25 25"><path fill="url(#a)" d="M15.046 9.946c.117.041.205.168.288.289.113.163.218.315.379.23a1.087 1.087 0 1 0-1.47-.45c.074.14.24.074.414.004.137-.055.28-.112.389-.073"/><path fill="url(#b)" d="M9.634 10.235c.084-.12.171-.248.29-.29.108-.038.25.02.388.074.174.07.34.136.414-.004a1.087 1.087 0 1 0-1.47.45c.16.085.266-.067.378-.23"/><path fill="url(#c)" d="M17.7 10.97a.707.707 0 1 0 0-1.414.707.707 0 0 0 0 1.414"/><path fill="url(#d)" d="M8.296 10.263a.707.707 0 1 1-1.413 0 .707.707 0 0 1 1.413 0"/><path fill="url(#e)" fill-rule="evenodd" d="M10.804 11.819c.518.256 1.103.544 1.732.544.631 0 1.222-.292 1.744-.55.135-.067.272-.134.397-.186a1.4 1.4 0 0 1 .417-.112.62.62 0 0 1 .55.233c.131.169.154.376.154.532 0 .572-.197 1.385-.697 2.066-.514.7-1.346 1.253-2.565 1.253-1.22 0-2.051-.553-2.565-1.253a3.66 3.66 0 0 1-.697-2.066c0-.152.022-.347.139-.512a.62.62 0 0 1 .527-.255c.151.003.298.052.411.096.12.047.251.11.378.173zm-.65.652c.038.396.194.92.518 1.36.126.173.279.333.462.47.235-.287.553-.502.918-.61.087-.026.176.123.268.276.088.148.179.3.27.3.099 0 .195-.15.289-.295.098-.152.194-.3.286-.27q.04.012.08.027c.295.11.555.29.759.52q.23-.188.396-.418c.324-.44.48-.964.518-1.36a10 10 0 0 0-.252.121l-.05.026c-.492.243-1.241.615-2.08.615-.841 0-1.597-.375-2.09-.62zm4.77-.252v.002z" clip-rule="evenodd"/><path fill="url(#f)" fill-rule="evenodd" d="M14.021 20.307a8.5 8.5 0 0 1-2.766.016c-.542.614-1.39.926-2.528.926-.692 0-1.492-.117-2.377-.346-.02-.006-.626-.175-1.287-.437-1.075-.426-1.629-.823-1.852-1.328a1.14 1.14 0 0 1 .08-1.091 1.28 1.28 0 0 1-.172-1.032c.066-.251.203-.46.388-.61a1.3 1.3 0 0 1-.172-.481c-.054-.37.07-.74.346-1.042.215-.234.52-.364.857-.364h.009a8.426 8.426 0 1 1 16.086.006q.06-.006.119-.006c.337 0 .641.13.857.364.276.301.399.671.345 1.042a1.3 1.3 0 0 1-.172.48c.186.15.323.36.389.611.051.198.104.608-.173 1.032q.027.041.05.085c.167.316.177.674.03 1.006-.223.505-.776.902-1.852 1.328-.661.262-1.267.431-1.286.436-.885.23-1.685.347-2.378.347-1.146 0-2-.317-2.541-.942m-1.43-15.86a7.556 7.556 0 0 1 7.368 9.234 1.14 1.14 0 0 0-.805-.32c-.281 0-.571.094-.861.278-.193.122-.405.338-.624.61a1.24 1.24 0 0 0-.812-.519 1 1 0 0 0-.188-.015c-.742 0-1.188.644-1.356 1.223-.084.195-.486 1.086-1.09 1.69-.917.916-1.15 1.861-.701 2.874a7.6 7.6 0 0 1-1.76.012c.456-1.017.226-1.966-.695-2.886-.604-.604-1.006-1.495-1.09-1.69-.169-.58-.615-1.223-1.357-1.223q-.093 0-.188.015a1.24 1.24 0 0 0-.811.52c-.22-.273-.432-.49-.624-.611-.29-.184-.58-.278-.862-.278-.352 0-.667.145-.886.407l-.006.007a7.556 7.556 0 0 1 7.347-9.329M6.134 14.23c.11 0 .246.047.396.142.464.294 1.358 1.833 1.686 2.431.11.2.298.285.467.285.335 0 .597-.333.03-.756-.851-.638-.553-1.68-.146-1.744a.3.3 0 0 1 .052-.004c.37 0 .533.637.533.637s.478 1.2 1.299 2.02c.821.822.864 1.48.265 2.358-.408.598-1.19.779-1.99.779-.83 0-1.682-.195-2.159-.318-.023-.006-2.924-.826-2.557-1.523.062-.118.164-.165.292-.165.274 0 .668.217 1.038.42.327.18.635.35.825.35.09 0 .154-.038.18-.132.079-.281-.456-.488-1.04-.715-.701-.271-1.474-.57-1.346-1.06.042-.158.154-.223.313-.222.405 0 1.11.423 1.684.767.393.236.724.435.855.435q.037 0 .052-.022c.161-.26.073-.442-1.063-1.129l-.26-.157c-.993-.596-1.637-.983-1.22-1.438q.08-.084.217-.082c.69 0 2.318 1.483 2.318 1.483s.44.457.706.457a.16.16 0 0 0 .148-.084c.095-.16-.35-.612-.829-1.099-.472-.48-.977-.994-1.031-1.295-.074-.41.052-.619.285-.619m12.624.142c.15-.095.285-.142.395-.142.234 0 .36.208.286.62-.055.3-.56.814-1.032 1.294-.479.487-.924.94-.829 1.1.036.059.088.083.149.083.266 0 .705-.457.705-.457s1.63-1.483 2.319-1.483q.137-.002.216.082c.418.455-.227.842-1.22 1.438l-.26.157c-1.135.687-1.224.869-1.063 1.129q.015.022.052.022c.131 0 .462-.199.856-.435.573-.344 1.278-.767 1.684-.767.158 0 .27.064.312.222.129.49-.644.789-1.346 1.06-.584.227-1.118.434-1.04.715.026.094.09.133.18.133.19 0 .498-.17.825-.35.37-.204.764-.42 1.039-.42.128 0 .23.046.292.164.367.697-2.534 1.517-2.558 1.523-.477.123-1.328.318-2.159.318-.8 0-1.582-.18-1.99-.78-.598-.877-.556-1.535.266-2.356.82-.82 1.298-2.02 1.298-2.02s.163-.638.533-.638a.3.3 0 0 1 .053.004c.406.064.705 1.106-.147 1.743-.566.424-.304.757.03.757a.53.53 0 0 0 .467-.285c.328-.598 1.223-2.137 1.687-2.43" clip-rule="evenodd"/><defs><linearGradient id="a" x1="3.077" x2="20.694" y1="21.249" y2="2.174" gradientUnits="userSpaceOnUse"><stop stop-color="#ededed" stop-opacity=".5"/><stop offset="1" stop-color="#fff"/></linearGradient><linearGradient id="b" x1="3.077" x2="20.694" y1="21.249" y2="2.174" gradientUnits="userSpaceOnUse"><stop stop-color="#ededed" stop-opacity=".5"/><stop offset="1" stop-color="#fff"/></linearGradient><linearGradient id="c" x1="3.077" x2="20.694" y1="21.249" y2="2.174" gradientUnits="userSpaceOnUse"><stop stop-color="#ededed" stop-opacity=".5"/><stop offset="1" stop-color="#fff"/></linearGradient><linearGradient id="d" x1="3.077" x2="20.694" y1="21.249" y2="2.174" gradientUnits="userSpaceOnUse"><stop stop-color="#ededed" stop-opacity=".5"/><stop offset="1" stop-color="#fff"/></linearGradient><linearGradient id="e" x1="3.077" x2="20.694" y1="21.249" y2="2.174" gradientUnits="userSpaceOnUse"><stop stop-color="#ededed" stop-opacity=".5"/><stop offset="1" stop-color="#fff"/></linearGradient><linearGradient id="f" x1="3.077" x2="20.694" y1="21.249" y2="2.174" gradientUnits="userSpaceOnUse"><stop stop-color="#ededed" stop-opacity=".5"/><stop offset="1" stop-color="#fff"/></linearGradient></defs></svg>
